X:83
T:Swallow's Tail
M:6/8
L:1/8
K:Ador
A/B/|cAA eAA|cAc edc|BGG dGG|gfg dcB|cAA eAA|
cAc e2f|gfg dcB|cAA A2::z|ef^g a2b|a2b a=ge|ef^g a2b|
a=ge g2z|ef^g a2b|a2b a=ge|gfg dcB cAA A2:|

